X:225
T:Guide Me, O Thou Great Jehovah
%%stretchlast false
M:4/4
L:1/4
K:F clef=C1
"^I"[F,,F,A,C] "^IV"[B,,F,B,D] "^I¹"[A,,F,C] "^i"[G,,F,C]/ "^I"[G,,A,CF]/ | [F,,A,CF]/ "^V²"[G,,G,CE]/ "^I¹"[A,,F,CF]/ "^ii7¹"[B,,F,DG]/ "^I²"[C,F,CA] "^V"[C,E,CG] | "^I"[F,CA] "^IV¹"[D,F,B,F] "^IV"[B,,F,D] "^ii7"[G,,F,DB] | "^I²"[C,F,CA] "^V7"[C,E,B,G] "^I"[F,,F,A,F]2 | [F,,F,A,C] "^IV"[B,,F,B,D] "^I¹"[A,,F,C] "^i"[G,,F,C]/ "^I"[G,,A,CF]/ | [F,,A,CF]/ "^V²"[G,,G,CE]/ "^I¹"[A,,F,CF]/ "^ii7¹"[B,,F,DG]/ "^I²"[C,F,CA] "^V"[C,E,CG] | "^I"[F,CA] "^IV¹"[D,F,DB] "^I¹"[A,,F,Cc] "^IV"[B,,F,DB]/ "^ii¹"[B,,B,DG]/ | "^I²"[C,A,CF] "^V"[C,G,CE] "^I"[F,,A,CF]2 | "^V7"[C,B,EG]3/2 "^I²"[C,A,FA]/ "^v7"[C,G,GB]/ "^ii7²"[D,F,GB]/ "^V¹"[E,CG]/ [E,G,CG]/ | "^I"[F,CFA]3/2 "^v7"[C,B,GB]/ "^I"[F,A,Ac]/ "^iii7³"[G,A,Gc]/ "^I¹"[A,CFA] | [A,CFc]3/2 [A,CFc]/ "^V7²"[G,B,Ec]/ "^I"[F,A,Fc]/ "^V¹"[E,G,Cc]/ "^vi7"[D,F,Fc]/ | "^V"[C,CEc] "^V¹"[E,Cc]/ "^V²"[G,CEc]/ [B,CGc]2 | "^I¹"[A,CFc]3/2 "^V7²"[G,CEB]/ "^I"[F,CFA]/ [F,A,Fc]/ "^ii¹"[B,,G,DB]/ [B,,B,DG]/ | "^I²"[C,A,CF] "^V"[C,G,CE]/ "^V7"[C,B,CE]/ "^I"[F,A,CF]2 |]
